X: 44
T: MacKinnon's Brook
T: Strathspey, A Dorian
L: 1/16
M: C
K: A Dorian
|: A4A3G1 E4E3D1| E1G3 E3D1 C3D1 E1G3| A4A3B1 c3d1 e1a3| g3e1d3B1 A4A4:| 
|: A4A3B1 c3d1 e1a3| g3d1 e1g3 d3g1 B3G1| A4A3B1 c3d1 e1a3| g3e1 d3B1 A4A4:| 
D: The Beatons of Mabou, Rounder 7011
D: Wendy MacIsaac, That's What You Get, WMT004 (as first Traditional Strathspey on set 8)
